X:1
T:Title
%%score ( 1 2 ) { 3 | 4 }
L:1/8
Q:1/4=104
M:4/4
K:F
V:1 treble nm="Grand Piano, Soprano"
V:2 treble 
V:3 bass nm="Choir Pad, Downey, 98.98 D"
V:4 bass 
V:1
 C2 [CF]2 [CF]>[CF] [CF]2 | [CE][CF] [B,G]2 [B,G]4 | [B,C]2 [B,G]2 [B,G]>[B,G] [B,G]2 | %3
w: By~Daniel~Brink~Towner,~1899 * * * *|||
 [A,F][CG] [CA]6 | [CF]2 [FA]2 [FA]>[FA] [_EA]2 | [_EG][EA] [DB]2 [DB]4 | %6
w: |||
 [DB]2 [Cc]2 [CA][CF] [DG]2 | [CF]>[CE] [CF]6 | [Fc]2 [Fc]2 [CA]>[CB] [Fc]2 | %9
w: |||
 [CA]>[CB] [Fc]4 [FA]2 | [Fc]2 [Fd]2 [Fc]>[Fc] [EB][FA] | [CG]>F [Ec]6 | %12
w: |||
 [EB]2 [FA]2 [FA][FB] [Fc]2 | z2 B4 z2 | [Fd]2 [Fc]2 [FA]F [DG]2 | [CF]>[CE] [CF]6- | %16
w: ||||
 [CF]2 z2 z4 |] %17
w: |
V:2
 x8 | x8 | x8 | x8 | x8 | x8 | x8 | x8 | x8 | x8 | x8 | x8 | x8 | [_EA][EF] D2- D-[Dc] [Fd]2 | x8 | %15
 x8 | x8 |] %17
V:3
 C,2 A,2 A,>A, A,2 | B,A, G,2 E,4 | E,2 E,2 E,>E, E,2 | F,E, F,6 | A,2[K:treble] C2 C>C C2 | %5
 A,[K:bass]F, F,2 F,4 | F,2 F,2 F,F, F,2 | A,>B, A,6 | A,2 A,2 F,>G, A,2 | F,>G, A,4 C2 | %10
 A,2 B,2[K:treble] C>C C2 | C>=B, C6 | C2 C2[K:bass] F,G, A,2 | CA, B,4 B,2 | B,2 C2 CC B,2 | %15
 A,>B, A,6- | A,2 z2 z4 |] %17
V:4
 z2 F,2 F,>F, F,2 | G,F, C,2 C,4 | C,2 C,2 C,>C, C,2 | D,C, z2 z4 | F,2 F,2 F,>F, F,2 | %5
 .F,2 B,,2 B,,4 | B,,2 A,,2 F,,A,, B,,2 | C,>C, F,6 | F,2 F,2 z z/ F,/ F,2 | z z/ F,/ F,4 F,2 | %10
 F,2 z2 A,>A, G,F, | E,>D, C,6 | C,2 F,2 z F, F,2 | F,F, B,,4 B,,2 | B,,2 A,,2 F,,A,, B,,2 | %15
 C,>C, F,6- | F,2 z2 z4 |] %17

